!!!OTL: Die hohe Blume.
!!!OTL-incipit: ES STAND EIN BAUM IM SCHWITZERLAND
!!!ARE: Europa, Mitteleuropa, Deutschland, Hessen
!!!SCT: Z1106
!!!TXL: @@DE
!!!YEM: Copyright 1995, estate of Helmut Schaffrath.
**kern	**text
*ICvox	*
*M6/8	*
*k[b-e-a-d-]	*
*A-:	*
!LO:TX:a:t=Jn Heſſen.	!
{8e-	Es
=1	=1
4a-	ſtand
8b-/	ein
4cc	Baum
8ee-	im
=2	=2
8dd-qq	.
8ccL	Schwitʒer-
8b-J	.
8cc	.
4a-}	-land,
{(16ccL	der
16dd-J)	.
=3	=3
4ee-	trug
8ff	Man-
4ee-	-ſchet-
8gg	-ten-
=4	=4
8aa-L	-Blu-
8ff	.
8ggJ	.
4aa-;}	-men,
{16ccL	die
16dd-J	.
=5	=5
4ee-	er-
8dd-	-ſte
8dd-qq	.
8ccL	Blum',
8b-J	.
8cc	die
=6	=6
8a-L	der
8gJ	.
8a-	Baum
4b-}	trug,
{16ccL	die
16dd-J	.
=7	=7
4ee-	war
8dd-	des
8dd-qq	.
8cc	Kö-
8b-	-ni-
8cc	-ges
=8	=8
8e-L	Toch-
8f	.
8gJ	.
4a-;}	-ter!
==	==
!!!AGN: Romanze, Ballade
!!!ONB: ESAC (Essen Associative Code) Database: ZUCCAL
!!!AMT: compound duple
!!!AIN: vox
!!!EED: Helmut Schaffrath
!!!EEV: 1.0
!!!GTL: II. Gau- Leuschen.
!!!URL-scan: https://www.digitale-sammlungen.de/de/view/bsb11160573?page=228
!!!ENC: Anna Maria Matuszewska
!!!EEV: 2025/02/04
*-	*-
